!!!OTL: Die dienende Schwester.
!!!OTL-incipit: Es wohnt ein Pfalzgraf ueber dem Rhein,
!!!ARE: Europa, Mitteleuropa, Deutschland (BRD), Baden
!!!YOR: 4, S. 114
!!    ????
!!!SCT: Q0075k
!!!TXL: @@DE
!!!YEM: Copyright 1995, estate of Helmut Schaffrath.
**kern	**text
*ICvox	*
*M6/8	*
*k[]	*
*C:	*
!LO:TX:a:t=Mäßig	!
!LO:TX:a:t=262 Baden	!
{8g	Es
=1	=1
4e	wohnt'
8g	ein
8eL	Pfalʒ-
8fJ	.
8g	-graf
=2	=2
8cc	ü-
8b	-ber
8cc	dem
4g}	Rhein,
{8f	der
=3	=3
8d	hat-
8d	-te
8f	drei
8dL	ſchö-
8eJ	.
8f	-ne
=4	=4
4a	Töch-
8a	-terlein,
4g}	.
{8g	der
=5	=5
8cc	hat-
8b	-te
8cc	drei
8eeL	ſchö-
8ddJ	.
8cc	-ne
=6	=6
4dd	Töch-
8ee	-ter-
4cc;}	-lein.
{8g	der
=7	=7
8cc	hat-
8b	-te
8cc	drei
8eeL	ſchö-
8ddJ	.
8cc	-ne
=8	=8
4dd	Töch-
8ee	-ter-
4cc;}	-lein.
==	==
!!!AGN: Ballade, Adelige als Dienstmagd, Tod; Kinder - Spiel, Tanz
!! Zweistimmig notiert, Oberstimme kodiert.
!!!ONB: ESAC (Essen Associative Code) Database: BALLADE
!!!AMT: compound duple
!!!AIN: vox
!!!EED: Helmut Schaffrath
!!!EEV: 1.0
!!!source: Deutsche Volkslieder mit ihren Melodien. Herausgegeben vom Deutschen Volksliedarchiv. Vierter Band. Berlin 1959.
!!!page: 114
!!!ENC: Anna Maria Matuszewska
!!!EEV: 2025/02/27
*-	*-
